icons/svg/amenity/register_office.svg

<?xml version="1.0" encoding="UTF-8" standalone="no"?>
<!-- Created with Inkscape (http://www.inkscape.org/) -->

<svg
   xmlns:dc="http://purl.org/dc/elements/1.1/"
   xmlns:cc="http://creativecommons.org/ns#"
   xmlns:rdf="http://www.w3.org/1999/02/22-rdf-syntax-ns#"
   xmlns:svg="http://www.w3.org/2000/svg"
   xmlns="http://www.w3.org/2000/svg"
   xmlns:sodipodi="http://sodipodi.sourceforge.net/DTD/sodipodi-0.dtd"
   xmlns:inkscape="http://www.inkscape.org/namespaces/inkscape"
   version="1.0"
   width="580"
   height="580"
   id="svg2"
   sodipodi:version="0.32"
   inkscape:version="0.91 r"
   sodipodi:docname="register_office.svg"
   inkscape:output_extension="org.inkscape.output.svg.inkscape">
  <defs
     id="defs3263">
    <inkscape:perspective
       sodipodi:type="inkscape:persp3d"
       inkscape:vp_x="0 : 290 : 1"
       inkscape:vp_y="0 : 1000 : 0"
       inkscape:vp_z="580 : 290 : 1"
       inkscape:persp3d-origin="290 : 193.33333 : 1"
       id="perspective3265" />
  </defs>
  <metadata
     id="metadata2975">
    <rdf:RDF>
      <cc:Work
         rdf:about="">
        <dc:format>image/svg+xml</dc:format>
        <dc:type
           rdf:resource="http://purl.org/dc/dcmitype/StillImage" />
        <cc:license
           rdf:resource="http://web.resource.org/cc/PublicDomain" />
        <dc:language>en</dc:language>
        <dc:title></dc:title>
      </cc:Work>
    </rdf:RDF>
  </metadata>
  <sodipodi:namedview
     inkscape:window-height="1051"
     inkscape:window-width="1920"
     inkscape:pageshadow="2"
     inkscape:pageopacity="0.0"
     guidetolerance="10.0"
     gridtolerance="10.0"
     objecttolerance="10.0"
     borderopacity="1.0"
     bordercolor="#666666"
     pagecolor="#ffffff"
     id="base"
     inkscape:zoom="0.92167712"
     inkscape:cx="473.21949"
     inkscape:cy="298.40282"
     inkscape:window-x="3600"
     inkscape:window-y="0"
     inkscape:current-layer="svg2"
     showgrid="false"
     inkscape:window-maximized="1" />
  <g
     id="g1327">
    <path
       d="M 66.275,1.768 C 24.94,1.768 1.704,23.139 1.704,66.804 L 1.704,516.927 C 1.704,557.771 22.599,579.156 63.896,579.156 L 515.92,579.156 C 557.227,579.156 578.149,558.841 578.149,516.927 L 578.149,66.804 C 578.149,24.203 557.227,1.768 514.628,1.768 C 514.624,1.768 66.133,1.625 66.275,1.768 z "
       style="fill:#111;stroke:#eee;stroke-width:3.40799999"
       id="path1329" />
  </g>
  <path
     inkscape:connector-curvature="0"
     d="m 365.85366,113.00815 c -17.59805,0 -29.72386,1.36754 -46.16894,6.33342 26.74094,15.95962 45.36264,33.87524 61.98975,60.18128 51.65129,7.19093 102.30907,56.84355 102.30907,110.47714 0,49.92182 -34.48813,91.67167 -80.91056,103.03961 -8.12141,1.99242 -16.55633,3.15551 -25.28455,3.15551 -41.07223,0 -76.6223,-23.36293 -94.29115,-57.47684 -7.56514,-14.59425 -11.3015,-31.15078 -11.90397,-48.71828 -0.3836,-11.1853 -0.0775,-24.20814 9.309,-43.66906 -11.89922,-19.13085 -41.86585,-42.29842 -66.75596,-42.29842 -1.04173,0 -2.043,0.11127 -3.06449,0.15171 -14.45265,26.1139 -22.22007,55.73727 -22.22007,85.81577 0,97.58826 79.40362,176.99186 176.99187,176.99186 97.58826,0 176.99185,-79.4036 176.99185,-176.99186 0,-97.58825 -79.40359,-176.99184 -176.99185,-176.99184 z"
     id="path7"
     style="fill:#ffffff;fill-opacity:1;stroke:none"
     sodipodi:nodetypes="sccscscscscssss" />
  <path
     inkscape:connector-curvature="0"
     d="m 184.93625,386.5313 c -51.63104,-7.21114 -85.664849,-51.04517 -85.664849,-104.66865 0,-50.69047 35.550079,-93.02691 83.064809,-103.59586 7.45388,-1.65867 15.17073,-2.59925 23.13031,-2.59925 50.79161,0 93.20896,35.69167 103.66666,83.34799 1.61821,7.37298 2.17505,15.00676 2.52845,22.84712 0.3836,8.51022 1.24543,21.06533 -8.26448,45.88959 15.15417,23.46065 37.03402,35.73796 64.62647,44.41779 1.01301,0.31867 3.13528,-0.23261 3.13528,-0.23261 14.40208,-26.09367 19.97931,-51.87915 19.97931,-81.93743 0,-97.58825 -79.40362,-176.99184 -176.99186,-176.99184 -97.58826,0 -176.991857,79.40359 -176.991857,176.99184 0,97.58826 79.403597,176.99186 176.991857,176.99186 17.67895,0 24.66527,-0.13379 41.18114,-3.60575 -26.54046,-14.8206 -49.47062,-31.69582 -70.39124,-76.8548 z"
     id="path9"
     style="fill:#ffffff;fill-opacity:1;stroke:none"
     sodipodi:nodetypes="cscscscscsssscc" />
</svg>

<svg width="580" height="580" viewBox="0 0 580 580" fill="none" xmlns="http://www.w3.org/2000/svg">
<g clip-path="url(#clip0)">
<path d="M66.275 1.7679C24.94 1.7679 1.70398 23.1389 1.70398 66.8039V516.927C1.70398 557.771 22.599 579.156 63.896 579.156H515.92C557.227 579.156 578.149 558.841 578.149 516.927V66.8039C578.149 24.2029 557.227 1.7679 514.628 1.7679C514.624 1.7679 66.133 1.6249 66.275 1.7679Z" fill="#111111" stroke="#EEEEEE" stroke-width="3.408"/>
<path d="M365.854 113.008C348.256 113.008 336.13 114.376 319.685 119.341C346.426 135.301 365.047 153.217 381.674 179.523C433.326 186.714 483.984 236.366 483.984 290C483.984 339.922 449.495 381.672 403.073 393.04C394.952 395.032 386.517 396.195 377.788 396.195C336.716 396.195 301.166 372.832 283.497 338.718C275.932 324.124 272.196 307.567 271.593 290C271.21 278.815 271.516 265.792 280.902 246.331C269.003 227.2 239.036 204.032 214.146 204.032C213.105 204.032 212.103 204.144 211.082 204.184C196.629 230.298 188.862 259.921 188.862 290C188.862 387.588 268.265 466.992 365.854 466.992C463.442 466.992 542.846 387.588 542.846 290C542.846 192.412 463.442 113.008 365.854 113.008V113.008Z" fill="white"/>
<path d="M184.936 386.531C133.305 379.32 99.2715 335.486 99.2715 281.863C99.2715 231.172 134.822 188.836 182.336 178.267C189.79 176.608 197.507 175.667 205.467 175.667C256.258 175.667 298.676 211.359 309.133 259.015C310.751 266.388 311.308 274.022 311.662 281.863C312.045 290.373 312.907 302.928 303.397 327.752C318.551 351.213 340.431 363.49 368.024 372.17C369.037 372.489 371.159 371.937 371.159 371.937C385.561 345.844 391.138 320.058 391.138 290C391.138 192.412 311.735 113.008 214.146 113.008C116.558 113.008 37.1545 192.412 37.1545 290C37.1545 387.588 116.558 466.992 214.146 466.992C231.825 466.992 238.812 466.858 255.328 463.386C228.787 448.565 205.857 431.69 184.936 386.531V386.531Z" fill="white"/>
</g>
<defs>
<clipPath id="clip0">
<path d="M0 0H580V580H0V0Z" fill="white"/>
</clipPath>
</defs>
</svg>
